X: 59
T: Webb's Wonderful
C:Phil Cunningham
M:C
L:1/8
K:D
Afed ef g2| BBBc dBGB| Afed efgB|1 dBdB A2 FG :|2 dBdB A2 fg ||
afed ed B2| ddde dBAf| afed ed B2|1 dedB A2 fg :|2dedB A4 ||

%%sep 2 1 500

